transport/svg/bus2.svg

<?xml version="1.0" encoding="UTF-8" standalone="no"?>
<svg
   xmlns:dc="http://purl.org/dc/elements/1.1/"
   xmlns:cc="http://creativecommons.org/ns#"
   xmlns:rdf="http://www.w3.org/1999/02/22-rdf-syntax-ns#"
   xmlns:svg="http://www.w3.org/2000/svg"
   xmlns="http://www.w3.org/2000/svg"
   height="47"
   width="98"
   id="svg18"
   xml:space="preserve"
   enable-background="new 0 0 100 100"
   viewBox="0 0 98 47"
   y="0px"
   x="0px"
   version="1.1"><metadata
     id="metadata24"><rdf:RDF><cc:Work
         rdf:about=""><dc:format>image/svg+xml</dc:format><dc:type
           rdf:resource="http://purl.org/dc/dcmitype/StillImage" /><dc:title></dc:title></cc:Work></rdf:RDF></metadata><defs
     id="defs22" /><path
     d="m 97.5,10 c -0.275,0 -0.95,0 -1.5,0 h -1 c -0.55,0 -1,0.45 -1,1 v 15 c 0,0.55 0.45,1 1,1 h 1 c 0.55,0 1.225,0 1.5,0 0.275,0 0.5,-0.225 0.5,-0.5 0,-0.275 0,-15.725 0,-16 C 98,10.225 97.775,10 97.5,10 Z"
     id="path2" /><path
     d="m 19.208,33.5 c -3.729,0 -6.75,3.019 -6.75,6.749 0,3.732 3.021,6.751 6.75,6.751 3.723,0 6.75,-3.019 6.75,-6.751 0,-3.73 -3.027,-6.749 -6.75,-6.749 z m 0,10.431 c -2.037,0 -3.683,-1.643 -3.683,-3.682 0,-2.036 1.646,-3.68 3.683,-3.68 2.029,0 3.681,1.644 3.681,3.68 0,2.039 -1.652,3.682 -3.681,3.682 z"
     id="path4" /><path
     d="m 78.676,33.5 c -3.726,0 -6.75,3.019 -6.75,6.749 0,3.732 3.024,6.751 6.75,6.751 3.725,0 6.751,-3.019 6.751,-6.751 0,-3.73 -3.027,-6.749 -6.751,-6.749 z m 0,10.431 c -2.034,0 -3.68,-1.643 -3.68,-3.682 0,-2.036 1.646,-3.68 3.68,-3.68 2.032,0 3.677,1.644 3.677,3.68 0,2.039 -1.645,3.682 -3.677,3.682 z"
     id="path6" /><path
     d="M 2,29 V 23 C 2,22.45 1.55,22 1,22 0.45,22 0,22.45 0,23 v 6 c 0,0.55 0.45,1 1,1 0.55,0 1,-0.45 1,-1 z"
     id="path8" /><path
     id="path12"
     d="M 35 0 C 34.45 0 34 0.45 34 1 L 34 2 L 7.703125 2 C 4.070125 2 1 3.8330156 1 7.6660156 L 1 21 L 1 31 L 1 32.4375 L 1 34.5 C 1 40.249 7.6992188 40 7.6992188 40 L 9.6210938 40 C 9.6210938 34.822 13.912031 30.630859 19.207031 30.630859 C 24.500031 30.630859 28.787109 34.822 28.787109 40 L 69.039062 40 C 69.039062 34.822 73.330094 30.630859 78.621094 30.630859 C 83.915094 30.630859 88 34.822 88 40 L 92.130859 40 C 92.130859 40 98 40.249 98 34.5 L 98 29 L 94.128906 29 C 92.999906 29 92 28.000031 92 26.832031 L 92 10 C 92 8.781 92.69875 8 94.21875 8 L 97.871094 8 C 97.871094 8 97.871047 2 92.123047 2 L 63 2 L 63 1 C 63 0.45 62.55 0 62 0 L 35 0 z M 7 8 L 20 8 L 20 21 L 7 21 L 7 8 z M 23 8 L 36 8 L 36 21 L 23 21 L 23 8 z M 39 8 L 52 8 L 52 21 L 39 21 L 39 8 z M 55 8 L 68 8 L 68 21 L 55 21 L 55 8 z M 71 8 L 84 8 L 84 21 L 71 21 L 71 8 z " /><text
     style="font-weight:bold;font-size:5px;font-family:'Helvetica Neue', Helvetica, Arial-Unicode, Arial, Sans-serif;fill:#000000"
     id="text14"
     font-weight="bold"
     font-size="5px"
     y="86"
     x="-1">Created by Ilsur Aptukov</text>
<text
     style="font-weight:bold;font-size:5px;font-family:'Helvetica Neue', Helvetica, Arial-Unicode, Arial, Sans-serif;fill:#000000"
     id="text16"
     font-weight="bold"
     font-size="5px"
     y="91"
     x="-1">from the Noun Project</text>
</svg>

<?xml version="1.0" encoding="UTF-8" standalone="no"?>
<svg
   xmlns:dc="http://purl.org/dc/elements/1.1/"
   xmlns:cc="http://creativecommons.org/ns#"
   xmlns:rdf="http://www.w3.org/1999/02/22-rdf-syntax-ns#"
   xmlns:svg="http://www.w3.org/2000/svg"
   xmlns="http://www.w3.org/2000/svg"
   version="1.1"
   x="0px"
   y="0px"
   viewBox="0 0 98 47"
   enable-background="new 0 0 100 100"
   xml:space="preserve"
   id="svg18"
   width="98"
   height="47"><metadata
     id="metadata24"><rdf:RDF><cc:Work
         rdf:about=""><dc:format>image/svg+xml</dc:format><dc:type
           rdf:resource="http://purl.org/dc/dcmitype/StillImage" /><dc:title></dc:title></cc:Work></rdf:RDF></metadata><defs
     id="defs22" /><path
     id="path2"
     d="m 97.5,10 c -0.275,0 -0.95,0 -1.5,0 h -1 c -0.55,0 -1,0.45 -1,1 v 15 c 0,0.55 0.45,1 1,1 h 1 c 0.55,0 1.225,0 1.5,0 0.275,0 0.5,-0.225 0.5,-0.5 0,-0.275 0,-15.725 0,-16 C 98,10.225 97.775,10 97.5,10 Z" /><path
     id="path4"
     d="m 19.208,33.5 c -3.729,0 -6.75,3.019 -6.75,6.749 0,3.732 3.021,6.751 6.75,6.751 3.723,0 6.75,-3.019 6.75,-6.751 0,-3.73 -3.027,-6.749 -6.75,-6.749 z m 0,10.431 c -2.037,0 -3.683,-1.643 -3.683,-3.682 0,-2.036 1.646,-3.68 3.683,-3.68 2.029,0 3.681,1.644 3.681,3.68 0,2.039 -1.652,3.682 -3.681,3.682 z" /><path
     id="path6"
     d="m 78.676,33.5 c -3.726,0 -6.75,3.019 -6.75,6.749 0,3.732 3.024,6.751 6.75,6.751 3.725,0 6.751,-3.019 6.751,-6.751 0,-3.73 -3.027,-6.749 -6.751,-6.749 z m 0,10.431 c -2.034,0 -3.68,-1.643 -3.68,-3.682 0,-2.036 1.646,-3.68 3.68,-3.68 2.032,0 3.677,1.644 3.677,3.68 0,2.039 -1.645,3.682 -3.677,3.682 z" /><path
     id="path8"
     d="M 2,29 V 23 C 2,22.45 1.55,22 1,22 0.45,22 0,22.45 0,23 v 6 c 0,0.55 0.45,1 1,1 0.55,0 1,-0.45 1,-1 z" /><path
     d="M 94.129,29 C 93,29 92,28 92,26.832 92,26 92,11.219 92,10 c 0,-1.219 0.698,-2 2.218,-2 1.521,0 3.653,0 3.653,0 0,0 0,-6 -5.748,-6 C 91.557,2 78.613,2 63,2 V 1 C 63,0.45 62.55,0 62,0 H 35 C 34.45,0 34,0.45 34,1 V 2 C 20.807,2 9.969,2 7.704,2 4.071,2 1,3.833 1,7.666 1,9.887 1,14.603 1,21 H 2.107 C 2.612,21 3,21.517 3,22.021 v 8.176 C 3,30.7 2.612,31 2.107,31 H 1 c 0,0.611 0,2.962 0,3.5 0,5.749 6.7,5.5 6.7,5.5 h 1.922 c 0,-5.178 4.291,-9.37 9.586,-9.37 5.293,0 9.58,4.192 9.58,9.37 H 69.04 c 0,-5.178 4.291,-9.37 9.582,-9.37 5.294,0 9.378,4.192 9.378,9.37 h 4.131 c 0,0 5.869,0.249 5.869,-5.5 0,-2.233 0,-0.623 0,-5.5 0,0 -1.521,0 -3.871,0 z M 20,21 H 7 V 8 h 13 z m 16,0 H 23 V 8 h 13 z m 16,0 H 39 V 8 h 13 z m 16,0 H 55 V 8 h 13 z m 16,0 H 71 V 8 h 13 z"
     id="path12" /><text
     x="-1"
     y="86"
     font-size="5px"
     font-weight="bold"
     id="text14"
     style="font-weight:bold;font-size:5px;font-family:'Helvetica Neue', Helvetica, Arial-Unicode, Arial, Sans-serif;fill:#000000">Created by Ilsur Aptukov</text>
<text
     x="-1"
     y="91"
     font-size="5px"
     font-weight="bold"
     id="text16"
     style="font-weight:bold;font-size:5px;font-family:'Helvetica Neue', Helvetica, Arial-Unicode, Arial, Sans-serif;fill:#000000">from the Noun Project</text>
</svg>
